X:1
T:Faronells Ground
T:Faronells Ground
T:The Division Flute
T:John Walsh (1665 – 1736)
C:John Walsh (1665 – 1736)
L:1/8
M:3/4
K:Bb
V:1 treble nm="Piano" snm="Pno."
V:1
 g2 g3 a | ^f2 f4 | g2 (g3 ^f/g/) | a2 a4 | b2 b3 c' | a2 a2 a2 | g2 g3 a | ^f2 f2 f2 | g2 g3 g | %9
 ^f2 f2 f2 | g2 (g3 ^f/g/) | a4 a2 | b2 b3 b | a2 a2 ba | bg ^f3 g | g6 || g>^fg>ag>a | %17
 ^f>^ef>gf>a | g>^fg>ag>b | a>ga>ba>c' | b>ab>c'b>c' | a>ga>ba>b | g>^fg>ag>a | %23
 ^f>^ef>g ^f/d/^e/f/ | g>^fg>ag>a | ^f>^ef>g ^f/d/^e/f/ | g>^fg>ag>b | a>ga>b a/^f/g/a/ | %28
 b>ab>c'b>d' | c'>bc'>c' c'/a/b/c'/ | ba a3 g | g6 || g2 G2 g2 | ^f2 d2 ^ff | g2 B2 g2 | a2 c2 aa | %36
 b2 Bbag | a2 Aag^f | g2 Gg^f^e | ^f2 d^e^fd | g2 d2 Gg | ^f2 d2 A^f | g2 d2 Gg | a2 f2 Aa | %44
 b2 f2 Bb | c'2 a2 fc' | ba a3 g | g6 || gd BG dg | ^fd a^f d^f | gd BG dg | =a^f cA Fa | %52
 bf dB fb | af cA Fa | gd BG dg | ^fd a^f d/d/^e/^f/ | gd BG dg | ^fd a^f d/d/^e/^f/ | gd BG dg | %59
 =a^f c=A F/f/g/a/ | bf dB gb | c'a fc A/a/b/c'/ | d'a a3 g | g6 || b2 b3 c' | a2 a4 | %66
 b2 b3 (a/b/) | c'2 c'4 | d'2 d'3 e' | c'2 c'2 d'c' | ba b3 c' | a2 a4 | b2 b3 b | a2 a2 a2 | %74
 b2 b3 (a/b/) | c'2 c'2 c'2 | d'2 d'3 _e' | c'2 d'c'ba | bc' a3 g | g6 || ba/b/ gabc' | %81
 ag/a/ fgac' | ba/b/ ad'c'b | c'b/c'/ ac'ba | bf/e/ dBde | cB/c/ ABcd | BA/B/ GABc | ag/a/ ^f2 d2 | %88
 BA/B/ GB/c/ dc/B/ | Aa/g/ ^f^e/=f/ d^e/^f/ | gd/c/ BA/B/ GA/B/ | cB/c/ AG/A/ Ff/g/ | %92
 f^e/f/ dc/d/ Be/d/ | cc'/b/ ag/a/ fg/a/ | ba/b/ a3 g | g6 || b2 g2 b2 | a2 ^f2 a2 | b2 g2 b2 | %99
 c'2 a2 c'2 | d'2 b2 d'2 | c'2 a2 c'2 | b2 g2 b2 | a2 ^f2 a2 | bagd'bc' | a2 ^fd af | gabad'b | %107
 c'2 af c'a | bc'd'abc' | agac'ac' | ba a3 g | g6 || b>a b2 z2 | ab a2 z2 | ba b2 z2 | c'b c'2 z2 | %116
 d'c' d'2 z2 | c'b c'2 z2 | b>a b>c' b>c' | a>b a2 z2 | ba b2 b2 | ab a2 a2 | ba b2 b2 | %123
 c'd' c'2 c'2 | d'c' d'e'd'e' | c'bc'd'c'd' | ba a3 g | g6 || b/a/b/c'/ d'b gd | %129
 ^f/^e/=f/g/ a^fdA | g/f/g/a/ bg dB | a/g/a/b/ c'a fc | d/c/d/e/ fd BF | A/G/A/B/ cA fc | %134
 B/A/B/c/ dB ge | f/e/f/g/ ab a2 | b/a/b/c'/ d'b gd | ^f/^e/=f/g/ a^f dA | g/f/g/a/ bg dB | %139
 a/g/a/b/ c'a fc | d/c/d/e/ fd BF | A/G/A/B/ cA fa | bg g3 ^f | g6 || d'2 d'3 d' | %145
 (d'e') (d'c') (bd') | b2 (b3 a/b/) | (c'd') (c'd') (c'b/a/) | b2 b3 c' | (a>g) (a>b) (a>b) | %150
 g2 g3 a | ^f2 f4 | (g>a) (g>a) (g>b) | (a>b) (a>b) (a>d') | (b>c') (b>c') (b>d') | %155
 (c'>d') (c'>d') (c'>a) | b2 c'2 d'2 | c'2 b2 a2 | bg g3 ^f | g6 || b2 b3 b | a2 a3 a | %162
 b2 (b3 a/b/) | c'2 c'2 c'2 | d2 d3 d | c2 c2 c2 | B2 B3 c | A2 A4 | b2 b3 c' | a2 a4 | %170
 b2 (b3 a/b/) | c'2 c'4 | d2 d3 e | cBcB B2 | z B A3 G | G6 |] %176

